X:1
T:Christ Returneth
T: James McGranahan, circa 1906
T:Christ Returneth
T:Public Domain
T:Public Domain
C:James McGranahan, circa 1906
Z:Public Domain
%%score ( 1 2 ) ( 3 4 )
L:1/8
M:3/4
K:D
V:1 treble 
V:2 treble 
V:3 bass 
V:4 bass 
V:1
 D2 | [DF]2 [DE]2 D2 | [DA]4 [DB]>[DA] | [DF]2 [DE]2 D2 | [DF]2 [CE]4 [CE]2 | [DF]2 [DF]2 [EA]2 | %6
w: 1.~It|be at morn,|the day is|a- wak- ing,|sun- light through|dark- ness and|
w: 2.~It|be at mid-|it may be|at twi- light,|may be, per-|chance, that the|
w: 3.~While~its|cry Ho- san-|from heav- en|de- scend- ing,|glo- ri- fied|saints and the|
w: 4.~Oh,|oh, de- light!|we go with-|out dy- ing,|sick- ness, no|sad- ness, no|
 [Fd]3 [Ge] [Fd]2 | [Ec]2 [^Gd]2 [GB]2 | [AB]2 A4 [GA]2 | [FA]2 [GB]2 [Gc]2 | [Fd]4 [Ec]>[Fd] | %11
w: sha- dow is|break- ing That|Je- sus will|in the full-|ness of glo-|
w: black- ness of|mid- night Will|burst in- to|in the blaze|of His glo-|
w: an- gels at-|tend- ing, With|grace on His|like a ha-|lo of glor-|
w: dread and no|cry- ing. Caught|up through the|with our Lord|in- to glor-|
 [Ge]3 [Fd] [Ge]2 | [Af]2 [Fd]2 ([Ad]>[Ad]) | [Bd]3 [Ac] [GB]2 | (A2 d2) [Gc]2 | [Fd]6 || %16
w: ry To~re- ceive|from the world *|“His own.” *|||
w: ry, When Je-|sus re- ceives *|“His own.” *|||
w: y, Will Je-|sus re- ceive *|“His own.” O|Lord * Je-|how|
w: y, When Je-|sus re- ceives *|“His own.” *|||
"^Refrain" [FA]4 [DF]2 | [DF]2 [CG]2 [DA]2 | [DB]4 [DB]2 | [Gd]4 [Gd]>[Gd] | [Bd]2 [Ac]2 [GB]2 | %21
w: |||||
w: |||||
w: long, how|long Ere we|shout the|glad song, Christ|re- turn- eth!|
w: |||||
 [FA]4 [Ec]>[Ec] | [Fd]2 [Fd]2 [Gc]>[Gc] | [Fd]2 [Fd]2 [Ae]>[Ae] | [Af]2 [Fd]2 [Gc]2 | %25
w: ||||
w: ||||
w: Hal- le- lu-|jah! Hal- le- lu-|jah! A- men. Hal-|le- lu- jah!|
w: ||||
 [Fd]4 [DF]>[DF] | [DA]2 [EG]2 [CE]2 | D4 |] %28
w: |||
w: |||
w: A- men. *|||
w: |||
V:2
 D2 | x4 D2 | x6 | x4 D2 | x8 | x6 | x6 | x6 | x2 A4 x2 | x6 | x6 | x6 | x6 | x6 | F4 x2 | x6 || %16
w: may|when||When|||||come||||||||
w: may|day,||It|||||light||||||||
w: hosts|na,||With|||||brow,||||||sus,||
w: joy!|should||No|||||clouds||||||||
 x6 | x6 | x6 | x6 | x6 | x6 | x6 | x6 | x6 | x6 | x6 | D4 |] %28
w: ||||||||||||
w: ||||||||||||
w: ||||||||||||
w: ||||||||||||
V:3
 [D,F,]2 | [D,A,]2 [D,G,]2 [D,F,]2 | [D,F,]4 [D,F,]>[D,F,] | [D,A,]2 [D,G,]2 [D,F,]2 | %4
 [A,,A,]2 [A,,A,]4 [A,,A,]2 | [D,A,]2 [D,A,]2 [C,A,]2 | [B,,B,]3 [C,A,] [D,A,]2 | %7
 [E,A,]2 [E,B,]2 [E,D]2 | [A,,D]2 [A,,C]4 [A,,C]2 | [A,D]2 [G,D]2 [E,A,]2 | [D,A,]4 [E,A,]>[D,A,] | %11
 [A,,C]3 [A,,D] [A,,C]2 | [D,D]2 [D,D]2 [F,D]>[F,D] | [G,D]3 [G,D] [G,D]2 | (D2 B,2) [A,,A,]2 | %15
 [D,A,]6 || [D,D]4 [D,A,]2 | [D,A,]2 [E,A,]2 [F,A,]2 | [G,D]4 [G,D]2 | [G,B,]4 [G,B,]>[G,B,] | %20
 [G,B,]2 [G,C]2 [G,D]2 | [D,D]4 A,>A, | [D,A,]2 [D,A,]2 [A,,A,]>[A,,A,] | %23
 [D,A,]2 [D,A,]2 [A,C]>[A,C] | [D,D]2 [D,A,]2 [A,,A,]2 | [D,A,]4 [D,A,]>[D,A,] | %26
 [A,,F,]2 [A,,A,]2 [A,,G,]2 | [D,F,]4 |] %28
V:4
 x2 | x6 | x6 | x6 | x8 | x6 | x6 | x6 | x8 | x6 | x6 | x6 | x6 | x6 | A,4 x2 | x6 || x6 | x6 | %18
 x6 | x6 | x6 | x4 A,>A, | x6 | x6 | x6 | x6 | x6 | x4 |] %28

